package/converter/svg/regular/arrow-down-wide-short.svg

<svg xmlns="http://www.w3.org/2000/svg" viewBox="0 0 576 512"><!-- Font Awesome Pro 6.0.0-alpha2 by @fontawesome - https://fontawesome.com License - https://fontawesome.com/license (Commercial License) --><path d="M359.999 432H311.999C298.749 432 287.999 442.75 287.999 456S298.749 480 311.999 480H359.999C373.247 480 383.997 469.25 383.997 456S373.247 432 359.999 432ZM423.997 304H311.999C298.749 304 287.999 314.75 287.999 328S298.749 352 311.999 352H423.997C437.247 352 447.997 341.25 447.997 328S437.247 304 423.997 304ZM487.997 176H311.999C298.749 176 287.999 186.75 287.999 200S298.749 224 311.999 224H487.997C501.247 224 511.997 213.25 511.997 200S501.247 176 487.997 176ZM551.995 48H311.999C298.749 48 287.999 58.75 287.999 72S298.749 96 311.999 96H551.995C565.245 96 575.995 85.25 575.995 72S565.245 48 551.995 48ZM206.372 335.961L151.999 394.914V56.023C151.999 42.758 141.249 32 127.999 32S103.999 42.758 103.999 56.023V394.914L49.626 335.961C44.907 330.836 38.47 328.242 32.001 328.242C26.189 328.242 20.345 330.336 15.722 334.617C5.972 343.594 5.378 358.797 14.378 368.555L110.374 472.633C119.437 482.453 136.562 482.453 145.624 472.633L241.62 368.555C250.62 358.797 250.027 343.594 240.277 334.617C230.497 325.547 215.31 326.203 206.372 335.961Z"/></svg>

<svg xmlns="http://www.w3.org/2000/svg" viewBox="0 0 576 512"><!--! Font Awesome Pro 6.6.0 by @fontawesome - https://fontawesome.com License - https://fontawesome.com/license (Commercial License) Copyright 2024 Fonticons, Inc. --><path d="M15 377l96 96c9.4 9.4 24.6 9.4 33.9 0l96-96c9.4-9.4 9.4-24.6 0-33.9s-24.6-9.4-33.9 0l-55 55L152 56c0-13.3-10.7-24-24-24s-24 10.7-24 24l0 342.1L49 343c-9.4-9.4-24.6-9.4-33.9 0s-9.4 24.6 0 33.9zM312 480l48 0c13.3 0 24-10.7 24-24s-10.7-24-24-24l-48 0c-13.3 0-24 10.7-24 24s10.7 24 24 24zm0-128l112 0c13.3 0 24-10.7 24-24s-10.7-24-24-24l-112 0c-13.3 0-24 10.7-24 24s10.7 24 24 24zm0-128l176 0c13.3 0 24-10.7 24-24s-10.7-24-24-24l-176 0c-13.3 0-24 10.7-24 24s10.7 24 24 24zm0-128l240 0c13.3 0 24-10.7 24-24s-10.7-24-24-24L312 48c-13.3 0-24 10.7-24 24s10.7 24 24 24z"/></svg>
